;FLAVOR:Marlin
;TIME:125
;Filament used: 0.079776m, 0m
;Layer height: 0.3
;MINX:46.419
;MINY:142.935
;MINZ:0.3
;MAXX:253.588
;MAXY:157.061
;MAXZ:0.8
;TARGET_MACHINE.NAME:Unknown
;POSTPROCESSED
;  [CreateThumbnail]
;  [CreateThumbnail]
;Generated with Cura_SteamEngine 5.6.0
;
;

;
;

T0
M140 S60
M105
M190 S60
M104 S220
M105
M109 S220
M82 ;absolute extrusion mode
;G28 ;Home
G1 Z15.0 F6000 ;Move the platform down 15mm
;Prime the extruder
G92 E0
G1 F200 E3
G92 E0
G92 E0
G92 E0
G1 F2400 E-5
;LAYER_COUNT:1
;LAYER:0
M106 S76.5
M204 S5000
G1 F12000 Z0.8
G0 X50.01 Y144.609 Z0.8
M204 S2500
;TYPE:SKIRT
G1 F12000 Z0.3
G1 F2400 E0
G1 F1200 X50.937 Y144.454 E0.04689
G1 X51.631 Y144.409 E0.08159
G1 X52.459 Y144.434 E0.12291
G1 X55.22 Y144.481 E0.26068
G1 X59.271 Y144.413 E0.46282
G1 X60.137 Y144.428 E0.50603
G1 X62.232 Y144.489 E0.61059
G1 X64.948 Y144.483 E0.74609
G1 X66.694 Y144.429 E0.83324
G1 X67.594 Y144.414 E0.87815
G1 X70.353 Y144.403 E1.0158
G1 X73.071 Y144.316 E1.15147
G1 X75.81 Y144.15 E1.28837
G1 X78.494 Y143.912 E1.4228
G1 X81.211 Y143.592 E1.55929
G1 X83.907 Y143.197 E1.69523
G1 X85.334 Y142.96 E1.7674
G1 X86.332 Y142.949 E1.81719
G1 X88.813 Y143.102 E1.9412
G1 X91.544 Y143.198 E2.07754
G1 X94.276 Y143.217 E2.21384
G1 X96.967 Y143.159 E2.34813
G1 X99.938 Y143.023 E2.49651
G1 X103.404 Y143.02 E2.66943
G1 X104.234 Y143.032 E2.71084
G1 X107.431 Y143.307 E2.87093
G1 X110.149 Y143.459 E3.00674
G1 X112.898 Y143.536 E3.14394
G1 X115.594 Y143.534 E3.27845
G1 X118.348 Y143.455 E3.4159
G1 X121.063 Y143.3 E3.55157
G1 X122.715 Y143.149 E3.63433
G1 X122.899 Y143.146 E3.64352
G1 X124.129 Y143.041 E3.7051
G1 X124.649 Y143.021 E3.73107
G1 X128.058 Y143.02 E3.90114
G1 X128.775 Y143.031 E3.93692
G1 X132.279 Y143.236 E4.11203
G1 X135.032 Y143.315 E4.24944
G1 X137.728 Y143.315 E4.38394
G1 X140.479 Y143.238 E4.52124
G1 X143.236 Y143.083 E4.65901
G1 X144.178 Y143.021 E4.7061
G1 X147.775 Y143.02 E4.88556
G1 X148.688 Y143.04 E4.93112
G1 X150.438 Y143.172 E5.01868
G1 X153.159 Y143.324 E5.15464
G1 X155.91 Y143.4 E5.29194
G1 X158.606 Y143.398 E5.42644
G1 X161.359 Y143.318 E5.56385
G1 X164.089 Y143.161 E5.70027
G1 X165.842 Y143.022 E5.78801
G1 X167.163 Y143.02 E5.85391
G1 X170.895 Y142.955 E6.04013
G1 X174.05 Y143.089 E6.19767
G1 X176.731 Y143.138 E6.33145
G1 X179.489 Y143.109 E6.46906
G1 X180.405 Y143.072 E6.51479
G1 X182.15 Y143.021 E6.60189
G1 X185.562 Y143.02 E6.77212
G1 X186.384 Y143.033 E6.81313
G1 X188.174 Y143.116 E6.90253
G1 X190.905 Y143.19 E7.03883
G1 X193.6 Y143.186 E7.17328
G1 X198.149 Y143.022 E7.40038
G1 X201.584 Y143.02 E7.57175
G1 X202.492 Y143.039 E7.61707
G1 X203.291 Y143.096 E7.65703
G1 X206.034 Y143.252 E7.7941
G1 X208.786 Y143.331 E7.93145
G1 X211.482 Y143.331 E8.06596
G1 X214.233 Y143.254 E8.20326
G1 X216.989 Y143.099 E8.34097
G1 X218.104 Y143.021 E8.39674
G1 X222.412 Y143.016 E8.61166
G1 X223.625 Y143.034 E8.67219
G1 X224.639 Y143.133 E8.72302
G1 X225.847 Y143.269 E8.78366
G1 X228.582 Y143.5 E8.9206
G1 X231.278 Y143.65 E9.05531
G1 X234.027 Y143.725 E9.19251
G1 X236.722 Y143.723 E9.32697
G1 X239.477 Y143.642 E9.46447
G1 X242.187 Y143.487 E9.5999
G1 X246.302 Y143.104 E9.80608
G1 X247.833 Y142.935 E9.88293
G1 X248.872 Y142.998 E9.93486
G1 X249.441 Y143.095 E9.96366
G1 X250.227 Y143.375 E10.00528
G1 X250.735 Y143.632 E10.03369
G1 X251.195 Y143.965 E10.06202
G1 X251.602 Y144.373 E10.09077
G1 X252.119 Y145.099 E10.13523
G1 X252.461 Y145.706 E10.16999
G1 X253.417 Y148.608 E10.32243
G1 X253.537 Y149.099 E10.34765
G1 X253.588 Y149.614 E10.37347
G1 X253.587 Y150.384 E10.41188
G1 X253.523 Y151.055 E10.44551
G1 X253.05 Y152.558 E10.52412
G1 X252.556 Y154.064 E10.60319
G1 X252.152 Y154.873 E10.64831
G1 X251.852 Y155.356 E10.67667
G1 X251.48 Y155.787 E10.70508
G1 X251.096 Y156.116 E10.73031
G1 X250.303 Y156.59 E10.7764
G1 X249.57 Y156.872 E10.81558
G1 X248.777 Y157.01 E10.85574
G1 X247.938 Y157.061 E10.89767
G1 X246.642 Y157.012 E10.96238
G1 X243.918 Y156.947 E11.09832
G1 X241.145 Y156.961 E11.23666
G1 X239.684 Y156.986 E11.30956
G1 X238.423 Y156.969 E11.37248
G1 X235.204 Y156.975 E11.53308
G1 X233.259 Y156.948 E11.63012
G1 X230.511 Y156.948 E11.76722
G1 X229.118 Y156.976 E11.83673
G1 X225.546 Y156.868 E12.01502
G1 X222.861 Y156.868 E12.14898
G1 X220.115 Y156.946 E12.28603
G1 X218.129 Y157.05 E12.38525
G1 X215.721 Y157.053 E12.50538
G1 X214.819 Y157.031 E12.5504
G1 X214.676 Y157.04 E12.55755
G1 X213.61 Y157.02 E12.61074
G1 X213.458 Y157.005 E12.61836
G1 X212.11 Y156.985 E12.68562
G1 X209.297 Y156.747 E12.82646
G1 X206.598 Y156.595 E12.96133
G1 X203.845 Y156.517 E13.09873
G1 X201.15 Y156.517 E13.23319
G1 X198.398 Y156.595 E13.37054
G1 X195.668 Y156.75 E13.50696
G1 X192.998 Y156.968 E13.64061
G1 X192.087 Y156.958 E13.68606
G1 X191.012 Y156.882 E13.73983
G1 X188.275 Y156.728 E13.87659
G1 X185.519 Y156.65 E14.01415
G1 X182.824 Y156.65 E14.1486
G1 X180.088 Y156.727 E14.28515
G1 X175.81 Y156.994 E14.499
G1 X173.038 Y156.81 E14.6376
G1 X170.331 Y156.699 E14.77276
G1 X167.594 Y156.664 E14.90933
G1 X164.858 Y156.706 E15.04584
G1 X162.123 Y156.827 E15.18242
G1 X161.028 Y156.907 E15.2372
G1 X159.714 Y156.987 E15.30288
G1 X156.436 Y156.951 E15.46643
G1 X154.698 Y156.975 E15.55314
G1 X154.104 Y156.967 E15.58278
G1 X152.594 Y156.897 E15.6582
G1 X149.803 Y156.812 E15.7975
G1 X147.107 Y156.806 E15.93201
G1 X144.364 Y156.879 E16.06891
G1 X142.181 Y156.983 E16.17794
G1 X140.671 Y156.969 E16.25328
G1 X137.917 Y156.969 E16.39068
G1 X136.85 Y156.986 E16.44391
G1 X134.194 Y156.985 E16.57642
G1 X131.284 Y156.853 E16.72175
G1 X128.552 Y156.809 E16.85807
G1 X125.829 Y156.842 E16.99393
G1 X123.697 Y156.904 E17.10034
G1 X120.655 Y156.947 E17.25212
G1 X119.636 Y156.973 E17.30298
G1 X118.596 Y156.958 E17.35487
G1 X115.885 Y156.958 E17.49012
G1 X115.22 Y156.976 E17.52331
G1 X114.223 Y156.987 E17.57305
G1 X111.009 Y156.974 E17.7334
G1 X109.798 Y156.982 E17.79382
G1 X108.889 Y156.936 E17.83923
G1 X106.126 Y156.833 E17.97717
G1 X103.39 Y156.806 E18.11368
G1 X100.717 Y156.857 E18.24706
G1 X97.748 Y156.988 E18.39533
G1 X95.092 Y156.949 E18.52785
G1 X92.7 Y156.975 E18.64719
G1 X92.147 Y156.967 E18.67479
G1 X89.436 Y156.967 E18.81004
G1 X86.317 Y157.054 E18.96571
G1 X85.142 Y157.023 E19.02435
G1 X82.109 Y156.977 E19.17568
G1 X76.279 Y156.977 E19.46654
G1 X73.76 Y157.009 E19.59223
G1 X72.241 Y157.047 E19.66803
G1 X70.983 Y157.009 E19.73082
G1 X70.036 Y156.962 E19.77813
G1 X67.343 Y156.903 E19.91251
G1 X63.759 Y156.943 E20.09133
G1 X62.294 Y156.981 E20.16445
G1 X61.571 Y156.915 E20.20067
G1 X59.076 Y156.493 E20.32691
G1 X56.393 Y156.113 E20.4621
G1 X53.644 Y155.802 E20.60012
G1 X50.798 Y155.557 E20.74264
G1 X49.954 Y155.361 E20.78587
G1 X49.409 Y155.18 E20.81452
G1 X48.62 Y154.76 E20.85911
G1 X47.954 Y154.239 E20.90129
G1 X47.405 Y153.628 E20.94228
G1 X46.886 Y152.706 E20.99506
G1 X46.674 Y152.083 E21.02789
G1 X46.565 Y151.438 E21.06053
G1 X46.419 Y149.475 E21.15873
G1 X46.427 Y148.901 E21.18737
G1 X46.576 Y148.062 E21.22989
G1 X46.998 Y147.016 E21.28616
G1 X47.452 Y146.332 E21.32712
G1 X48.073 Y145.682 E21.37197
G1 X48.513 Y145.322 E21.40033
G1 X49.111 Y144.973 E21.43487
G1 X50.01 Y144.609 E21.48326
M204 S5000
G0 F12000 X50.122 Y144.996
M204 S2500
G1 F1200 X50.964 Y144.853 E21.52587
G1 X51.619 Y144.809 E21.55862
G1 X52.447 Y144.834 E21.59995
G1 X55.22 Y144.881 E21.73831
G1 X59.264 Y144.813 E21.9401
G1 X60.125 Y144.828 E21.98306
G1 X62.221 Y144.889 E22.08767
G1 X64.96 Y144.883 E22.22432
G1 X66.701 Y144.829 E22.31122
G1 X67.596 Y144.814 E22.35588
G1 X70.366 Y144.803 E22.49408
G1 X73.084 Y144.716 E22.62975
G1 X75.834 Y144.549 E22.7672
G1 X78.541 Y144.309 E22.90278
G1 X81.269 Y143.988 E23.03982
G1 X83.973 Y143.592 E23.17617
G1 X85.4 Y143.355 E23.24833
G1 X86.335 Y143.349 E23.29498
G1 X88.799 Y143.502 E23.41815
G1 X91.53 Y143.598 E23.55448
G1 X94.282 Y143.617 E23.69178
G1 X96.985 Y143.559 E23.82667
G1 X99.938 Y143.423 E23.97415
G1 X103.399 Y143.42 E24.14682
G1 X104.2 Y143.431 E24.18679
G1 X107.397 Y143.705 E24.34687
G1 X110.138 Y143.859 E24.48383
G1 X112.887 Y143.936 E24.62104
G1 X115.605 Y143.934 E24.75664
G1 X118.359 Y143.855 E24.89409
G1 X121.094 Y143.699 E25.03076
G1 X122.721 Y143.549 E25.11228
G1 X122.925 Y143.546 E25.12246
G1 X124.145 Y143.441 E25.18355
G1 X124.649 Y143.421 E25.20871
G1 X128.052 Y143.42 E25.37849
G1 X128.752 Y143.43 E25.41342
G1 X132.268 Y143.636 E25.58913
G1 X135.021 Y143.715 E25.72654
G1 X137.739 Y143.715 E25.86214
G1 X140.49 Y143.638 E25.99944
G1 X143.263 Y143.482 E26.138
G1 X144.178 Y143.421 E26.18375
G1 X147.766 Y143.42 E26.36276
G1 X148.658 Y143.439 E26.40727
G1 X150.408 Y143.571 E26.49483
G1 X153.148 Y143.724 E26.63174
G1 X155.899 Y143.8 E26.76904
G1 X158.618 Y143.798 E26.90469
G1 X161.371 Y143.718 E27.0421
G1 X164.121 Y143.56 E27.17952
G1 X165.874 Y143.421 E27.26725
G1 X167.17 Y143.42 E27.33191
G1 X170.878 Y143.355 E27.51693
G1 X174.033 Y143.489 E27.67448
G1 X176.728 Y143.538 E27.80895
G1 X179.505 Y143.509 E27.94751
G1 X180.417 Y143.472 E27.99304
G1 X182.15 Y143.421 E28.07954
G1 X185.556 Y143.42 E28.24947
G1 X186.365 Y143.433 E28.28983
G1 X188.155 Y143.516 E28.37923
G1 X190.895 Y143.59 E28.51598
G1 X193.614 Y143.586 E28.65163
G1 X198.149 Y143.422 E28.87803
G1 X201.576 Y143.42 E29.04901
G1 X202.464 Y143.438 E29.09332
G1 X203.263 Y143.495 E29.13328
G1 X206.023 Y143.652 E29.2712
G1 X208.775 Y143.731 E29.40856
G1 X211.493 Y143.731 E29.54416
G1 X214.244 Y143.654 E29.68146
G1 X217.017 Y143.498 E29.82002
G1 X218.104 Y143.421 E29.87439
G1 X222.407 Y143.416 E30.08907
G1 X223.586 Y143.432 E30.1479
G1 X224.594 Y143.531 E30.19843
G1 X225.805 Y143.667 E30.25922
G1 X228.548 Y143.898 E30.39656
G1 X231.267 Y144.05 E30.53242
G1 X234.016 Y144.125 E30.66962
G1 X236.734 Y144.123 E30.80522
G1 X239.489 Y144.042 E30.94273
G1 X242.218 Y143.886 E31.0791
G1 X246.339 Y143.502 E31.28559
G1 X247.809 Y143.334 E31.3594
G1 X248.809 Y143.393 E31.40938
G1 X249.308 Y143.472 E31.43459
G1 X250.05 Y143.734 E31.47384
G1 X250.503 Y143.958 E31.49906
G1 X250.915 Y144.251 E31.52428
G1 X251.276 Y144.605 E31.5495
G1 X251.793 Y145.331 E31.59397
G1 X252.093 Y145.867 E31.62462
G1 X253.028 Y148.703 E31.7736
G1 X253.148 Y149.194 E31.79881
G1 X253.188 Y149.615 E31.81991
G1 X253.189 Y150.346 E31.85638
G1 X253.129 Y150.977 E31.888
G1 X252.67 Y152.433 E31.96417
G1 X252.176 Y153.939 E32.04324
G1 X251.81 Y154.665 E32.0838
G1 X251.547 Y155.097 E32.10904
G1 X251.22 Y155.483 E32.13427
G1 X250.836 Y155.812 E32.1595
G1 X250.159 Y156.217 E32.19886
G1 X249.465 Y156.484 E32.23596
G1 X248.752 Y156.611 E32.27209
G1 X247.953 Y156.661 E32.31203
G1 X246.657 Y156.612 E32.37673
G1 X243.926 Y156.547 E32.51302
G1 X241.138 Y156.561 E32.65212
G1 X239.689 Y156.586 E32.72442
G1 X238.427 Y156.569 E32.78739
G1 X235.21 Y156.575 E32.94788
G1 X233.265 Y156.548 E33.04493
G1 X230.503 Y156.548 E33.18273
G1 X229.13 Y156.576 E33.25124
G1 X225.558 Y156.468 E33.42953
G1 X222.85 Y156.468 E33.56463
G1 X220.104 Y156.546 E33.70169
G1 X218.128 Y156.65 E33.80041
G1 X215.731 Y156.653 E33.91999
G1 X214.811 Y156.631 E33.9659
G1 X214.683 Y156.64 E33.97231
G1 X213.65 Y156.622 E34.02385
G1 X213.48 Y156.605 E34.03237
G1 X212.144 Y156.586 E34.09903
G1 X209.331 Y156.349 E34.23987
G1 X206.609 Y156.195 E34.37589
G1 X203.856 Y156.117 E34.51329
G1 X201.139 Y156.117 E34.64885
G1 X198.387 Y156.195 E34.7862
G1 X195.635 Y156.351 E34.92372
G1 X192.965 Y156.569 E35.05737
G1 X192.115 Y156.559 E35.09978
G1 X191.04 Y156.483 E35.15354
G1 X188.286 Y156.328 E35.29116
G1 X185.53 Y156.25 E35.42871
G1 X182.813 Y156.25 E35.56426
G1 X180.077 Y156.327 E35.70082
G1 X175.837 Y156.595 E35.91277
G1 X173.054 Y156.41 E36.05192
G1 X170.347 Y156.299 E36.18709
G1 X167.593 Y156.264 E36.3245
G1 X164.84 Y156.306 E36.46186
G1 X162.105 Y156.427 E36.59844
G1 X161.003 Y156.508 E36.65357
G1 X159.718 Y156.587 E36.7178
G1 X156.434 Y156.551 E36.88165
G1 X154.704 Y156.575 E36.96797
G1 X154.123 Y156.567 E36.99696
G1 X152.613 Y156.497 E37.07237
G1 X149.815 Y156.412 E37.21203
G1 X147.097 Y156.406 E37.34763
G1 X144.345 Y156.479 E37.48498
G1 X142.162 Y156.583 E37.59401
G1 X140.675 Y156.569 E37.6682
G1 X137.911 Y156.569 E37.8061
G1 X136.85 Y156.586 E37.85904
G1 X134.212 Y156.585 E37.99065
G1 X131.302 Y156.453 E38.13598
G1 X128.553 Y156.409 E38.27315
G1 X125.817 Y156.442 E38.40965
G1 X123.691 Y156.504 E38.51577
G1 X120.645 Y156.547 E38.66775
G1 X119.642 Y156.573 E38.7178
G1 X118.602 Y156.558 E38.76969
G1 X115.874 Y156.558 E38.9058
G1 X115.216 Y156.576 E38.93864
G1 X114.225 Y156.587 E38.98808
G1 X111.008 Y156.574 E39.14858
G1 X109.795 Y156.582 E39.2091
G1 X108.904 Y156.536 E39.25361
G1 X106.141 Y156.433 E39.39155
G1 X103.386 Y156.406 E39.529
G1 X100.699 Y156.457 E39.66308
G1 X97.73 Y156.588 E39.81135
G1 X95.094 Y156.549 E39.94288
G1 X92.706 Y156.575 E40.06202
G1 X92.153 Y156.567 E40.08961
G1 X89.425 Y156.567 E40.22571
G1 X86.328 Y156.654 E40.38028
G1 X85.153 Y156.623 E40.43893
G1 X82.115 Y156.577 E40.59051
G1 X76.274 Y156.577 E40.88192
G1 X73.75 Y156.609 E41.00785
G1 X72.253 Y156.647 E41.08256
G1 X71.003 Y156.609 E41.14495
G1 X70.056 Y156.562 E41.19226
G1 X67.348 Y156.503 E41.32739
G1 X63.749 Y156.543 E41.50696
G1 X62.284 Y156.581 E41.58007
G1 X61.638 Y156.521 E41.61244
G1 X59.132 Y156.097 E41.73924
G1 X56.449 Y155.717 E41.87443
G1 X53.678 Y155.403 E42.01356
G1 X50.832 Y155.158 E42.15608
G1 X50.076 Y154.98 E42.19482
G1 X49.595 Y154.826 E42.22002
G1 X48.864 Y154.443 E42.26119
G1 X48.251 Y153.971 E42.29979
G1 X47.73 Y153.392 E42.33865
G1 X47.265 Y152.577 E42.38546
G1 X47.053 Y151.954 E42.4183
G1 X46.964 Y151.408 E42.44589
G1 X46.819 Y149.477 E42.5425
G1 X46.821 Y148.971 E42.56775
G1 X46.963 Y148.173 E42.60819
G1 X47.355 Y147.201 E42.66047
G1 X47.742 Y146.607 E42.69584
G1 X48.329 Y145.989 E42.73837
G1 X48.717 Y145.666 E42.76356
G1 X49.261 Y145.344 E42.79509
G1 X50.122 Y144.996 E42.84142
M204 S5000
G1 F2400 E37.84142
G1 F12000 Z0.8
;MESH:flag.stl
G0 X52.624 Y151.185 Z0.8
M204 S2500
;TYPE:WALL-OUTER
G1 F12000 Z0.3
G1 F2400 E42.84142
G1 F783 X52.395 Y151.49 E42.87059
G1 F840.6 X52.087 Y151.649 E42.89527
G1 F923.1 X51.613 Y151.726 E42.92642
G1 F909.1 X51.324 Y151.721 E42.94545
G1 F884 X50.852 Y151.595 E42.97854
G1 F843.6 X50.603 Y151.387 E43.00156
G1 F804 X50.481 Y151.218 E43.01708
G1 F797.3 X50.433 Y150.984 E43.03502
G1 F755.9 X50.498 Y150.63 E43.06352
G1 F713.2 X50.749 Y150.358 E43.09459
G1 F719.6 X51.016 Y150.238 E43.11894
G1 F740.7 X52.326 Y149.868 E43.22896
G1 F722.9 X52.546 Y149.752 E43.24956
G1 F695.7 X52.691 Y149.62 E43.26644
G1 F690.6 X52.81 Y149.387 E43.28912
G1 F718.6 X52.838 Y149.09 E43.31397
G1 F771.7 X52.709 Y148.736 E43.3432
G1 F812.2 X52.512 Y148.529 E43.36426
G1 F852.6 X52.126 Y148.337 E43.39454
G1 F893.9 X51.666 Y148.27 E43.42567
G1 F895.5 X51.267 Y148.3 E43.45242
G1 F849.6 X50.897 Y148.417 E43.47977
G1 F797.3 X50.748 Y148.514 E43.49312
G1 F769.2 X50.53 Y148.743 E43.51772
G1 F751.2 X50.412 Y148.969 E43.53804
M204 S5000
G1 F2400 E38.53804
G1 F12000 Z0.8
G0 X56.743 Y148.412 Z0.8
M204 S2500
G1 F12000 Z0.3
G1 F2400 E43.53804
G1 F1851.9 X56.737 Y150.605 E43.71529
G1 F1818.2 X56.662 Y151.12 E43.75813
G1 F1762.1 X56.534 Y151.365 E43.78161
G1 F1769.9 X56.325 Y151.54 E43.80466
G1 F1886.8 X56.022 Y151.678 E43.83107
G1 F2023.6 X55.764 Y151.714 E43.85034
G1 F2146.7 X55.353 Y151.676 E43.87912
G1 F2454 X54.91 Y151.454 E43.90934
M204 S5000
G0 F12000 X54.61 Y151.175
M204 S2500
G1 F2684.6 X54.874 Y151.426 E43.92965
G1 X54.666 Y151.394 E43.94138
G1 X54.456 Y151.477 E43.95397
G1 X54.319 Y151.638 E43.96575
G1 X54.315 Y151.696 E43.969
G1 X54.177 Y151.696 E43.97669
G1 F2666.7 X54.18 Y150.858 E44.02372
G1 F2158.3 X54.285 Y150.471 E44.05153
